ion/settings-sharp.svg

<svg viewBox="0 0 512 512" xmlns="http://www.w3.org/2000/svg"><path d="M256 176v0c-44.19 0-80 35.81-80 80 0 44.18 35.81 80 80 80 44.18 0 80-35.82 80-80v0c-.14-44.13-35.88-79.87-80-80Zm172.72 80v0c-.05 7.47-.59 14.93-1.64 22.34l48.69 38.12v0c4.37 3.61 5.49 9.87 2.63 14.78l-46.06 79.52v0c-2.9 4.85-8.86 6.93-14.14 4.93l-57.25-23v-.001c-11.93 9.17-24.97 16.79-38.82 22.67l-8.56 60.78h0c-.99 5.61-5.82 9.74-11.51 9.86h-92.12v0c-5.59-.11-10.37-4.07-11.51-9.53l-8.56-60.78v0c-13.9-5.81-26.95-13.44-38.82-22.69l-57.25 23 -.001-.001c-5.29 2.01-11.25-.07-14.14-4.92l-46.06-79.51h0c-2.87-4.91-1.75-11.17 2.63-14.78l48.69-38.12v0c-1.04-7.52-1.59-15.09-1.64-22.67v0c.04-7.48.58-14.94 1.64-22.34l-48.69-38.12h0c-4.38-3.62-5.5-9.88-2.63-14.78l46.06-79.52v0c2.89-4.86 8.85-6.94 14.14-4.93l57.25 23v0c11.92-9.18 24.96-16.8 38.82-22.67l8.56-60.78 0 0c.98-5.62 5.81-9.75 11.51-9.86h92.12v0c5.58.1 10.36 4.06 11.51 9.53l8.56 60.78V96.3c13.9 5.79 26.98 13.43 38.87 22.69l57.2-23v0c5.28-2.02 11.24.06 14.14 4.92l46.06 79.52v0c2.86 4.9 1.74 11.16-2.63 14.78l-48.69 38.12h-.001c1.03 7.5 1.58 15.07 1.64 22.66Z"/></svg>

<svg xmlns="http://www.w3.org/2000/svg" width="512" height="512" viewBox="0 0 512 512"><path d="M256,176a80,80,0,1,0,80,80A80.24,80.24,0,0,0,256,176Zm172.72,80a165.53,165.53,0,0,1-1.64,22.34l48.69,38.12a11.59,11.59,0,0,1,2.63,14.78l-46.06,79.52a11.64,11.64,0,0,1-14.14,4.93l-57.25-23a176.56,176.56,0,0,1-38.82,22.67l-8.56,60.78A11.93,11.93,0,0,1,302.06,486H209.94a12,12,0,0,1-11.51-9.53l-8.56-60.78A169.3,169.3,0,0,1,151.05,393L93.8,416a11.64,11.64,0,0,1-14.14-4.92L33.6,331.57a11.59,11.59,0,0,1,2.63-14.78l48.69-38.12A174.58,174.58,0,0,1,83.28,256a165.53,165.53,0,0,1,1.64-22.34L36.23,195.54a11.59,11.59,0,0,1-2.63-14.78l46.06-79.52A11.64,11.64,0,0,1,93.8,96.31l57.25,23a176.56,176.56,0,0,1,38.82-22.67l8.56-60.78A11.93,11.93,0,0,1,209.94,26h92.12a12,12,0,0,1,11.51,9.53l8.56,60.78A169.3,169.3,0,0,1,361,119L418.2,96a11.64,11.64,0,0,1,14.14,4.92l46.06,79.52a11.59,11.59,0,0,1-2.63,14.78l-48.69,38.12A174.58,174.58,0,0,1,428.72,256Z"/></svg>
